assets/img/icon-twitter.svg

<svg height="27" viewBox="0 0 32 27" width="32" xmlns="http://www.w3.org/2000/svg"><path d="m20.06336 40c12.07552 0 18.68032-10.3885164 18.68032-19.397391 0-.2950679 0-.5888066-.0192-.8812163 1.2849041-.9650702 2.394055-2.1600041 3.27552-3.5288524-1.1982348.5513274-2.4693385.9128877-3.77088 1.0726116 1.3705523-.8519991 2.3963181-2.1920461 2.8864-3.770755-1.2887584.7940986-2.698693 1.3537396-4.16896 1.6547727-2.0350941-2.2470427-5.2688392-2.7970143-7.8879369-1.3415223-2.6190977 1.4554919-3.9721911 4.5544736-3.3005431 7.5592141-5.2788535-.2747992-10.197151-2.8638555-13.53088-7.1228325-1.7425629 3.1150194-.8524955 7.1000505 2.03264 9.1005849-1.0448113-.0321551-2.0668424-.324823-2.97984-.8533045v.0863938c.0008552 3.2452058 2.2038419 6.0402991 5.2672 6.682889-.9665669.273722-1.9806968.3137346-2.96448.1169638.8600933 2.7771243 3.3248954 4.6795958 6.13376 4.7343776-2.3248192 1.8972493-5.1967238 2.9271901-8.1536 2.9240962-.5223634-.0010413-1.0442188-.0338829-1.56288-.0983559 3.002414 2.0007152 6.4958892 3.06195 10.06336 3.0570097" fill="#42c8f7" transform="translate(-10 -13)"/></svg>

<?xml version="1.0" encoding="UTF-8"?>
<svg width="32px" height="27px" viewBox="0 0 32 27" version="1.1" xmlns="http://www.w3.org/2000/svg" xmlns:xlink="http://www.w3.org/1999/xlink">
    <!-- Generator: Sketch 51.2 (57519) - http://www.bohemiancoding.com/sketch -->
    <title>Shape</title>
    <desc>Created with Sketch.</desc>
    <defs></defs>
    <g id="Symbols" stroke="none" stroke-width="1" fill="none" fill-rule="evenodd">
        <g id="sns-icon" transform="translate(-10.000000, -13.000000)" fill="#42C8F7" fill-rule="nonzero">
            <g id="Twitter_Logo_Blue">
                <path d="M20.06336,40 C32.13888,40 38.74368,29.6114836 38.74368,20.602609 C38.74368,20.3075411 38.74368,20.0138024 38.72448,19.7213927 C40.0093841,18.7563225 41.118535,17.5613886 42,16.1925403 C40.8017652,16.7438677 39.5306615,17.105428 38.22912,17.2651519 C39.5996723,16.4131528 40.6254381,15.0731058 41.11552,13.4943969 C39.8267616,14.2884955 38.416827,14.8481365 36.94656,15.1491696 C34.9114659,12.9021269 31.6777208,12.3521553 29.0586231,13.8076473 C26.4395254,15.2631392 25.086432,18.3621209 25.75808,21.3668614 C20.4792265,21.0920622 15.560929,18.5030059 12.2272,14.2440289 C10.4846371,17.3590483 11.3747045,21.3440794 14.25984,23.3446138 C13.2150287,23.3124587 12.1929976,23.0197908 11.28,22.4913093 C11.28,22.5192212 11.28,22.5484621 11.28,22.5777031 C11.2808552,25.8229089 13.4838419,28.6180022 16.5472,29.2605921 C15.5806331,29.5343141 14.5665032,29.5743267 13.58272,29.3775559 C14.4428133,32.1546802 16.9076154,34.0571517 19.71648,34.1119335 C17.3916608,36.0091828 14.5197562,37.0391236 11.56288,37.0360297 C11.0405166,37.0349884 10.5186612,37.0021468 10,36.9376738 C13.002414,38.938389 16.4958892,39.9996238 20.06336,39.9946835" id="Shape"></path>
            </g>
        </g>
    </g>
</svg>
